X:1
T:Der Hölle Rache kocht in meinem Herzen
T:from Die Zauberflöte
T:W. A. Mozart (1756-1791)
%%score 1 { ( 2 4 ) | ( 3 5 ) }
L:1/8
Q:1/4=90
M:4/4
K:C
V:1 treble+8 nm="Flauta de bisel Soprano"
V:2 treble nm="Piano"
V:4 treble 
V:3 bass 
V:5 bass 
V:1
 z8 | z4 z EEE | A3 E ccBB | A2 E2 z4 | d4 z2 B^G | e2 A2 z4 | _B4 ^c3 c | d2 e2 f4- | %8
 f2 d2 _B2 A2 | ^G2 z2 z4 | C4 E2 =G2 | c4 z2 z G | (ed)(cB) (AG)(FE) | F2 d2 z2 z d | %14
 (fe)(dc) (BA)(GF) | E2 c2 z4 | z2 F2 A2 c2 | f4 e4 | _e3 c e3 c | B4 z2 G2 | c4 d4 | e4 z2 GG | %22
 c3 c d3 d | e4 z2({f} e/d/e/f/) | .g.g.g.g .g.g.g.g | c4 z2({d} c/B/c/d/) | .e.e.e.e .e.e.e.e | %27
 A4 z2{B} (A/G/A/B/) | cccG dddG | eceg c'gaf | gceg c'gaf | g2 z2 c3 c | d4 f4 | G6 (AB) | %34
 c4 z2({f} e/d/e/f/) | .g.g.g.g .g.g.g.g | c4 z2({d} c/B/c/d/) | .e.e.e.e .e.e.e.e | %38
 A4 z2({B} A/G/A/B/) | cccG dddG | eceg c'gaf | gceg c'gaf | g2 z2 c4 | d3 d _e3 e | e4 c4 | %45
 G6 (AB) | c2 z2 z2 b2- | b2 z2 z2 (b2 | c'2) ad' fadf | B2 g2 f2 d2 | c2 z2 z4 | z4 z2 z c | %52
 c3 c c3 c | c2 C2 z2 z c | c3 c c3 c | c2 C2 z2 z c | c3 c c3 c | c2 C2 z2 CC | _B4 G4 | E4 A4 | %60
 D2 z2 z2 z d | d2 D2 z2 z d | d2 D2 z2 dd | d2 D2 z2 DD | c4 A4 | ^F4 =B4 | E2 z2 z4 | E4 B4 | %68
 (3cdc (3efe (3cdc (3ABA | (3^GAG (3E^FE (3GAG (3BcB | (3cdc (3e=fe (3cdc (3ABA | %71
 (3^GAG (3E^FE (3GAG (3BcB | c2 z2 z4 | z .A.c.e .a.e.f.d | e2 z2 z4 | z .A.c.e .a.e.f.d | %76
 .e.A.c.e .a.e.a.g | .f.d.g.f .e.c.f.e | .d.B.e.d c2 A2 | _B4 d4 | f2 d2 _B2 A2 | ^G2 z2 z2 E2 | %82
 ^G4 z2 G2 | B4 z2 B2 | d2 B2 ^G2 E2 | F8 | E2 z2 !fermata!z4 | A4 z4 | c4 z4 | f8- | f8- | %91
 f4 d3 _B | ^G2 G2 z4 | c8 | z2 A2 ^G3 A | E4 z4 | z8 | z8 | z8 |] %99
V:2
 z8 | [Acea]8 |!mp! [CA] z [A,CE] z [EAc] z [D^GB] z | [CA]2 z2 (c2 B/A/^G/A/) | %4
 [B,D^G]2 z2 (d2 c/B/A/B/) | [CEA]2 z2 (e2 d/c/B/A/) | %6
 [DF_B][DFB][DFB][DFB] [EG^c][EGc][EGc][EGc] | [FAd][FAd][Ae][Ae] [Af] [Af]2 [Af-] | %8
 [Bf][Bf][Fd][Fd] [D_B][DB][C^FA][CFA] | [=B,E^G]2 (=g2 [^fa]2 [=fb]2) | [ec']2 [E,C]2 .E2 .=G2 | %11
 .c2 .E2 .G2 .c2 | (ed).c.B .A.G.F.E | FDFA dFAd | (fe).d.c .B.A.G.F | ECEG cegc | %16
 [FAcf]2 F2 A2 c2 | [cf][cf][cf][cf] [ce][ce][ce][ce] | .[C_e] ([Ce]2 [_Ec]) .[Ce] ([Ce]2 [Ec]) | %19
 [DB](G,^F,G, F,G,) z (([B,G] | c3)){dcB} c d3{dcB} d | C G,^F,G, F,G, z (e | %22
 c3){dcB} c d3{dcB} (d | e).e.e.e .e.e.e.e | z .[Bdg].[Bdg].[Bdg] .[Bdg].[Bdg].[Bdg].[Bdg] | %25
 z [Ec][Ec][Ec] [Ec][Ec][Ec][Ec] | z .[GBe].[GBe].[GBe] .[GBe].[GBe].[GBe].[GBe] | %27
 z [CA][CA][CA] [CA][CA][CA][CA] | [CG]2 z2 [DG]2 z2 | [EG]2 z2 [ceg] z [ceg] z | %30
 [ceg]2 z2 [ceg] z [ceg] z | [ceg]2 z2 [CEc][CEc][CEc][CEc] | %32
 [EAd][EAd][EAd][EAd] [Adf][Adf][Adf][Adf] | [B,DG] [B,DG]2 [B,DG]2 ([B,DG][CEA][DFB]) | %34
 [CEc].[Ge].[Ge].[Ge] .[Ge].[Ge].[Ge].[Ge] | z .[Bdg].[Bdg].[Bdg] .[Bdg].[Bdg].[Bdg].[Bdg] | %36
 z [Ec][Ec][Ec] [Ec][Ec][Ec][Ec] | z .[GBe].[GBe].[GBe] .[GBe].[GBe].[GBe].[GBe] | %38
 z [CA][CA][CA] [CA][CA][CA][CA] | [CG]2 z2 [DG]2 z2 | [EG]2 z2 [ceg] z [cfa] z | %41
 [ceg]2 z2 [ceg]2 [cfa]2 | [ceg]2 z2 [Gc][Gc][Gc][Gc] | %43
 [Acd][Acd][Acd][Acd] [Ac_e][Ace][Ace][Ace] | [Gc=e][Gce][EG][EG] [EGc][EGc][Cce][Cce] | %45
 [eg]2 [Gce]>[Gce] [FBdg]2 [FBdg]>[FBdg] | (c/G/A/B/ c/d/e/f/) (g/f/e/d/) (e/d/c/B/) | %47
 (c/G/A/B/ c/d/e/f/) (g/f/e/d/) (e/d/c/B/) | c/c/e/e/ A/A/c/c/ F/F/A/A/ D/D/F/F/ | %49
 B,2 [EGce]2 [FAd]2 [DGBd]2 | [CEGc]2 z2 z4 | z E,F,G, A,G,A,G, | E, EFG AGAF | EE,F,G, A,G,A,G, | %54
 E, EFG AGAF | EE,F,G, A,G,A,G, | E, EFG AGAF | EE,F,G, A,G,A,G, | %58
 [E,G,]/_B/[E,G,]/B/ [E,G,]/B/[E,G,]/B/ [E,_B,]/G/[E,B,]/G/ [E,B,]/G/[E,B,]/G/ | %59
 [G,A,]/E/[G,A,]/E/ [G,A,E]/[G,A,E]/[G,A,E]/[G,A,E]/ [G,A,]/A/[G,A,]/A/ [G,A,]/A/[G,A,]/A/ | %60
 [D,F,] .[DF].[EG].[FA] .[G_B].[FA].[GB].[EG] | [DF] [D,F,][E,G,][F,A,] [G,_B,][F,A,][G,B,][E,G,] | %62
 [D,F,] .[DF].[EG].[FA] .[G_B].[FA].[GB].[EG] | [DF] [D,F,][E,G,][F,A,] [G,_B,][F,A,][G,B,][E,G,] | %64
 [^F,A,]/C/[F,A,]/C/ [F,A,]/C/[F,A,]/C/ [F,C]/A/[F,C]/A/ [F,C]/A/[F,C]/A/ | %65
 [A,=B,]/^F/[A,B,]/F/ [A,B,]/F/[A,B,]/F/ [A,B,]/=B/[A,B,]/B/ [A,B,]/B/[A,B,]/B/ | %66
 [^G,E]2 [G,B,E]4 [G,-B,E]2 | [G,B,E]2 [E,G,B,]2 [E,^G,B,]2 [E,G,B,]2 | %68
 z2 [E,A,C]2 [E,A,C]2 [E,A,C]2 | z2 [E,^G,B,]2 [E,G,B,]2 [E,G,B,]2 | %70
 z2 [E,A,C]2 [E,A,C]2 [E,A,C]2 | z2 [E,^G,B,]2 [E,G,B,]2 [E,G,B,]2 | C.A.c.e .a.e.f.d | %73
 e2 z2 [CE] z [DF] z | .C.A.c.e .a.e.f.d | e2 z2 [CE] z [DF] z | [CE]2 z2 z2 [EA] z | %77
 [FA] z [DG] z [EG] z [CF] z | [DF] z [B,F] z [CE]2 z2 | %79
 F,/_B,/F,/B,/ F,/B,/F,/B,/ F,/B,/F,/B,/ F,/B,/F,/B,/ | %80
 F,/_B,/F,/B,/ F,/B,/F,/B,/ F,/B,/F,/B,/ ^F,/A,/F,/A,/ | [^G,^G]2 [EGBe]2 [EGBe]2 z2 | %82
 z2 [E^GBe]2 [EGBe]2 z2 | z2 [^GBe^g]2 [GBeg]2 z2 | z8 | z2 A2 ^G2 A2 | [Bde]4 !fermata!z4 | %87
 z2 z (3(E/^F/^G/ A4) | z2 z (3(^G/A/B/ c4) | z4 [ac']4 | [_bd']2 [ac']2 [bd']2 [ac']2 | %91
 [_bd']2 z2 z4 | z2 z3/2 [=Bf^g=b]/ [Bfgb]3/2 z/ z/ z [c^fac']/ | [c^fac']4 z4 | z8 | z4 [Bd^g]4 | %96
 (a^gab c'^c'd'^d') | e'2 z2 [^Ge]2 z2 | [Acea]4 z4 |] %99
V:3
 [C,E,]/A,/[C,E,]/A,/ [C,E,]/A,/[C,E,]/A,/ [C,E,]/A,/[C,E,]/A,/ [C,E,]/A,/[C,E,]/A,/ | %1
{E,^F,^G,} A,2 E,2 C,2 A,,2 | A,,A,,A,,A,, A,,A,,A,,A,, | A,,A,,A,,A,, A,,A,,A,,A,, | %4
 B,,B,,B,,B,, B,,B,,B,,B,, | C,C,C,C, C,C,C,C, | D,D,D,D, E,E,E,E, | F,F,^C,C, D,D,D,D, | %8
 D,D,D,D, D,D,^D,D, | E,2 (E,2 ^D,2 =D,2) | C,C,C,C, C,C,C,C, | C,C,C,C, C,C,C,C, | %12
 C,C,C,C, C,C,C,C, | C,C,C,C, C,C,C,C, | B,,B,,B,,B,, B,,B,,B,,B,, | _B,,B,,B,,B,, B,,B,,B,,B,, | %16
 A,,2 z2 z4 | A,A,A,A, G,G,G,G, | ^F,F,F,F, F,F,F,F, | G, (G,^F,G, F,G,=F,D,) | %20
 .E,.G,.E,.C, .B,,.D,.B,,.G,, | C, (G,^F,G, F,G,=F,D,) | .E,.G,.E,.C, .B,,.D,.B,,.G,, | %23
 C,.C.C.C .C.C.C.C | B,4 z4 | z .A,.A,.A, .A,.A,.A,.A, | G,4 z4 | z .F,.F,.F, .F,.F,.F,.F, | %28
 E,2 z2 B,2 z2 | C2 z2 z4 | z8 | z4 A,A,A,A, | F,F,F,F, D,D,D,D, | G,G,G,G, G,,G,,G,,G,, | %34
 C,.C.C.C .C.C.C.C | B,4 z4 | z .A,.A,.A, .A,.A,.A,.A, | G,4 z4 | z .F,.F,.F, .F,.F,.F,.F, | %39
 E,2 z2 B,2 z2 | C2 z2 z4 | z8 | z4 E,E,E,E, | F,F,F,F, ^F,F,F,F, | G,G,G,G, E,E,C,C, | %45
 G,,2 z2 G,,2 z2 | C,2 z2 z2 G,,2 | C,2 z2 z2 G,,2 | C,2 A,C F,A,D,F, | B,,2 C,2 F,,2 G,,2 | %50
 C,,2 z2 z4 | z C,D,E, F,E,F,D, | C,2 z2 z4 | z C,D,E, F,E,F,D, | C,2 z2 z4 | z C,D,E, F,E,F,D, | %56
 C,2 z2 z4 | z C,D,E, F,E,F,D, | ^C,C,C,C, C,C,C,C, | ^C,C,C,C, C,C,C,C, | D,2 z2 z4 | %61
 z D,E,F, G,F,G,E, | D,2 z2 z4 | z D,E,F, G,F,G,E, | ^D,D,D,D, D,D,D,D, | ^D,D,D,D, D,D,D,D, | %66
 E,E,^G,E, B,,E,^G,,B,, | E,,2 z2 z4 | E,2 z2 z4 | E,,2 z2 z4 | E,2 z2 z4 | E,,2 z2 z4 | %72
 A,,2 z2 z4 | A,2 z2 A, z A, z | A,2 z2 A, z A, z | A,2 z2 A, z A, z | A,2 z2 z2 C z | %77
 C z G, z C z A, z | B, z ^G, z A,2 z2 | D,D,D,D, D,D,D,D, | D,D,D,D, D,D,^D,D, | E,2 E,2 E,,2 z2 | %82
 z2 E,2 E,,2 z2 | z2 E,2 E,,2 z2 | z8 | z2 D,2 B,,2 A,,2 | ^G,,2 z2 !fermata!z4 | %87
 z2 z (3(E,,/^F,,/^G,,/ A,,4) | z2 z (3(^G,,/A,,/B,,/ C,4) | z4 _E,4 | D,D,_E,E, D,D,E,E, | %91
 D,2 z2 z4 | z2 z3/2 D,/ D,2 z3/2 ^D,/ | ^D,4 z4 | z8 | z4 E,4 | F,6 ^F,2 | E,2 z2 E,2 z2 | %98
 A,,4 z4 |] %99
V:4
 x8 | x8 | x8 | x8 | x8 | x8 | x8 | x8 | x8 | x8 | x8 | x8 | x8 | x8 | x8 | x8 | x8 | x8 | x8 | %19
 x8 | G2 z (E G2) z B, | e x6 (A, | G2) z (E G2) z B, | CGGG GGGG | [Gd]4 x4 | [Aec']4 x4 | %26
 [EB]4 x4 | [Aec']4 x4 | x8 | x8 | x8 | x8 | x8 | x8 | x8 | [Gd]4 x4 | [Aec']4 x4 | [EB]4 x4 | %38
 [Aec']4 x4 | x8 | x8 | x8 | x8 | x8 | x8 | x8 | x8 | x8 | x8 | x8 | %50
 c/c'/c/c'/ c/c'/c/c'/ c/c'/c/c'/ c/c'/c/c'/ | [Acc']8 | x8 | [Acc']8 | x8 | [Acc']8 | x8 | %57
 [Acc']8 | x8 | x8 | x8 | x8 | x8 | x8 | x8 | x8 | x8 | x8 | x8 | x8 | x8 | x8 | x8 | x8 | x8 | %75
 x8 | x8 | x8 | x8 | x8 | x8 | x8 | x8 | x8 | x8 | z2 [df]4 [df]2 | x8 | x8 | x8 | x8 | x8 | x8 | %92
 x8 | x8 | x8 | x8 | x8 | x8 | x8 |] %99
V:5
 x8 | x8 | x8 | x8 | x8 | x8 | x8 | x8 | x8 | x8 | x8 | x8 | x8 | x8 | x8 | x8 | x8 | x8 | x8 | %19
 x8 | x8 | x8 | x8 | C,2 x6 | x8 | x8 | x8 | x8 | x8 | x8 | x8 | x8 | x8 | x8 | C,2 x6 | x8 | x8 | %37
 x8 | x8 | x8 | x8 | x8 | x8 | x8 | x8 | x8 | x8 | x8 | x8 | x8 | x8 | x8 | x8 | x8 | x8 | x8 | %56
 x8 | x8 | x8 | x8 | x8 | x8 | x8 | x8 | x8 | x8 | x8 | x8 | x8 | x8 | x8 | x8 | z4 A, z A, z | %73
 x8 | x8 | x8 | x8 | x8 | x8 | x8 | x8 | x8 | x8 | x8 | x8 | x8 | x8 | x8 | x8 | x8 | x8 | x8 | %92
 x8 | x8 | x8 | x8 | x8 | x8 | x8 |] %99

